X:191
T: NUN LEB WOHL MEIN FEINES LIEBCHEN
N: E0774
O: Europa, Mitteleuropa, Deutschland, Niederrhein ?
R: Abschieds - Lied, Wander - Lied, Liebe
M: 4/4
L: 1/8
K: Bb
F2B2 | d2d2c2dc | B2F2
d2e2 | f2f2e2fe | d2z2
f2f2 | g2z2e2e2 | f2z2
d3f | fedcB2dc | B2z2

@@@ Tune index: 4504
